!!!COM: Haydn, Franz Joseph
!!!OTL: String Quartet in E Major
!!!OPS: Opus 54
!!!ONM: No. 3
!!!OMD: Largo
!!!OMV: 2
!!!SCT: H III:59
!!!SCA: Thematisch-bibliographisches Werkevererzeichnis (A. van Hoboken)
!!!YOR: Trautwein Edition
!!!ENC: Frances Bennion
!!!CDT: 1732/3/31/-1809/5/31/
!!!CNT: Oesterreich
!!!YEC: Copyright (c) 1994, 2000 Center for Computer Assisted Research in the Humanities
!!!YEM: Rights to all derivative editions reserved.
!!!YEM: Refer to licensing agreement for further details.
!!!YEN: United States of America
**kern	**kern	**kern	**kern
*k[f#c#g#]	*k[f#c#g#]	*k[f#c#g#]	*k[f#c#g#]
*A:	*A:	*A:	*A:
*clefF4	*clefC3	*clefG	*clefG
*M3/4	*M3/4	*M3/4	*M3/4
4AA	4A	8..cc#	8..ee
.	.	32b	32dd
2r	2r	16a	16cc#
.	.	16r	16r
.	.	16e	16b
.	.	16r	16r
.	.	16c#	16a
.	.	16r	16r
.	.	16e	16b
.	.	16r	16r
=2	=2	=2	=2
8..c#	8..e	8..a	8..cc#
32B	32d	32b	32dd
16A	16c#	8cc#	16ee
16r	16r	.	4..r
16E	16B	4.r	.
16r	16r	.	.
16C#	16A	.	.
16r	16r	.	.
16E	16B	.	.
16r	16r	.	.
=3	=3	=3	=3
8.A	8.c#	[2.a	8..aa
32B	32d	.	.
32c#	32e	.	32gg#
8d	8f#	.	8ff#
8e	8g	.	8ee
8f#	8a	.	8dd
8d#	8f#	.	8cc#
=4	=4	=4	=4
4e	4e	4a]	16cc#
.	.	.	16dd
.	.	.	16.dd#
.	.	.	32ee
8.E	8E	8g#	8b
.	4.r	4.r	4.r
16E	.	.	.
16D#	.	.	.
16E	.	.	.
16F#	.	.	.
16E	.	.	.
=5	=5	=5	=5
4E	8..g#	8..b	8..dd
.	32a	32a	32cc#
16E	16b	16g#	16b
16r	16r	16r	16r
16d	16e	16g#	16b
16r	16r	16r	16r
16c#	16e	16a	16cc#
16r	16r	16r	16r
16B	16e	16b	16dd
16r	16r	16r	16r
=6	=6	=6	=6
4A	2e	4cc#	8.ee
.	.	.	64ff#
.	.	.	64gg#
.	.	.	64aa
.	.	.	64bb
2F#	.	2a	4ccc#
.	4d#	.	8aa
.	.	.	8ff#
=7	=7	=7	=7
8G#	8e	8e	16bb
.	.	.	16b
8A	8A	16cc#	16aa
.	.	16a	16ff#
8B	8B	8g#	8ee
8r	8r	8r	16r
.	.	.	16gg#
8BB	8d#	8f#	8aa
8r	8r	8r	16r
.	.	.	16dd#
=8	=8	=8	=8
[4E	4d#	4a	4ff#
16E]	8e	8g#	8ee
16e	.	.	.
16d#	4.r	4.r	4.r
16e	.	.	.
16d	.	.	.
16B	.	.	.
16G#	.	.	.
32F#	.	.	.
32E	.	.	.
=9	=9	=9	=9
[4E	4d#	4a	4ff#
16E]	8e	8g#	8ee
16e	.	.	.
16d#	4.r	4.r	4.r
16e	.	.	.
16B	.	.	.
16G#	.	.	.
16A	.	.	.
32G#	.	.	.
32F#	.	.	.
=10	=10	=10	=10
[4E	8..G#	8..b	8..e 8..dd
.	32A	32a	32cc#
16E]	16B	16g#	16b
16E	16c#	16e	16a
16E	16B	16d	16g#
16E	16c#	16e	16a
16E	16B	16d	16g#
16E	16c#	16e	16a
16E	16B	16d	16b
16E	16A	16c#	16cc#
=11	=11	=11	=11
4E	4G#	4B	[12..dd
.	.	.	96dd]
.	.	.	32ee
.	.	.	32ff#
.	.	.	32ee
2r	2r	2r	8dd
.	.	.	8.r
.	.	.	32g#
.	.	.	32b
.	.	.	32a
.	.	.	32cc
.	.	.	32b
.	.	.	32dd
=12	=12	=12	=12
4A	2.r	16r	8.cc
.	.	16e	.
.	.	16f	.
.	.	16f	32dd
.	.	.	32cc
2G#	.	16f	8b
.	.	16d#	.
.	.	16e	16r
.	.	16e	16b
.	.	[4e	16dd
.	.	.	16b
.	.	.	16dd
.	.	.	16b
=13	=13	=13	=13
4A	2.r	16e]	8.cc
.	.	16e	.
.	.	16f	.
.	.	16f	32dd
.	.	.	32cc
8G#	.	16f	16b
.	.	16d#	16b
8G	.	16e	16r
.	.	16e	16ee
8F#	.	16e	16a
.	.	16c#	16a
8F	.	16d	16r
.	.	16d	16a
=14	=14	=14	=14
8E	[2.B	[2.d	16g#
.	.	.	16g#
8F	.	.	16r
.	.	.	32a
.	.	.	64g#
.	.	.	64a
8E	.	.	16g#
.	.	.	16g#
8F	.	.	16r
.	.	.	32a
.	.	.	64g#
.	.	.	64a
8E	.	.	16g#
.	.	.	16g#
8F	.	.	16r
.	.	.	32a
.	.	.	64g#
.	.	.	64a
=15	=15	=15	=15
4E	4B]	4d]	16.g#
.	.	.	32a
.	.	.	16.b
.	.	.	32cc
2r	2r	2r	16.dd
.	.	.	32ee
.	.	.	16ff
.	.	.	16ee
.	.	.	8.bb
.	.	.	16aa
=16	=16	=16	=16
4e	4b	4dd	16.gg#
.	.	.	32aa
.	.	.	16.bb
.	.	.	32ccc
2r	2r	2r	[6..ddd
.	.	.	48ddd]
.	.	.	16ccc
.	.	.	16bb
.	.	.	16aa
=17	=17	=17	=17
2.r	2.r	4r	8gg#
.	.	.	8r
.	.	4.dd	4.ff#
.	.	8r	8r
=18	=18	=18	=18
4AA	4A	8..cc#	8..ee
.	.	32b	32dd
2r	2r	16a	16cc#
.	.	16r	16r
.	.	16e	16b
.	.	16r	16r
.	.	16c#	16a
.	.	16r	16r
.	.	16e	16b
.	.	16r	16r
=19	=19	=19	=19
8..c#	8..e	8..a	8..cc#
32B	32d	32b	32dd
16A	16c#	8cc#	8ee
16r	16r	.	.
16E	16B	4.r	4.r
16r	16r	.	.
16C#	16A	.	.
16r	16r	.	.
16E	16B	.	.
16r	16r	.	.
=20	=20	=20	=20
8.A	8.c#	[2.a	8..aa
32B	32d	.	.
32c#	32e	.	32gg#
8d	8f#	.	8ff#
8e	8g	.	8ee
8f#	8a	.	8dd
8d#	8f#	.	8cc#
=21	=21	=21	=21
4e	4e	4a]	16cc#
.	.	.	16dd
.	.	.	16.dd#
.	.	.	32ee
8.E	8E	8g#	8b
.	4.r	4.r	4.r
16E	.	.	.
16D#	.	.	.
16E	.	.	.
16F#	.	.	.
16E	.	.	.
=22	=22	=22	=22
[4E	8..g#	8..b	8..dd
.	32a	32a	32cc#
16E]	16b	16g#	16b
16r	16r	16r	16r
16d	16e	16g#	16b
16r	16r	16r	16r
16c#	16e	16a	16cc#
16r	16r	16r	16r
16B	16e	16b	16dd
16r	16r	16r	16r
=23	=23	=23	=23
4A	4e	4cc#	8.ee
.	.	.	64ff#
.	.	.	64gg#
.	.	.	64aa
.	.	.	64bb
4C#	4e 4A	4a 4ee	8..ccc#
.	.	.	32bb
4r	4r	4r	16.aa
.	.	.	32gg#
.	.	.	32.ff#
.	.	.	64ee
.	.	.	32.dd
.	.	.	64cc#
=24	=24	=24	=24
8D	8D	8f#	16b
.	.	.	16b
8r	8r	8r	16dd
.	.	.	16ff#
8E	8E	8c#	8a
8r	8r	8r	32r
.	.	.	32a
.	.	.	16a
8E	8G#	8B	16ee
.	.	.	16dd
8r	8r	8r	32r
.	.	.	32g#
.	.	.	16g#
=25	=25	=25	=25
[4AA	4G#	4d	4b
16AA]	8A	8c#	8a
16A	.	.	.
16G#	4.r	4.r	4.r
16A	.	.	.
16E	.	.	.
16C#	.	.	.
16C#	.	.	.
32BB	.	.	.
32AA	.	.	.
=26	=26	=26	=26
[4AA	4G#	4d	4b
16AA]	8A	8c#	8a
16A	.	.	.
16G#	4.r	4.r	4.r
16A	.	.	.
16E	.	.	.
16C	.	.	.
16D	.	.	.
32C	.	.	.
32BB	.	.	.
=27	=27	=27	=27
16AA	16c	16e	16r
16A	16c	16e	16aa
16A	16c	16e	16gg#
16A	16c	16e	16aa
16A	16c	16e	16ee
16A	16c	16e	16cc
16A	16c	16e	16cc
16A	16c	16e	32b
.	.	.	32a
16A	16c	16e	32g#
.	.	.	32a
16A	16c	16e	32b
.	.	.	32cc
16A	16c	16e	32dd
.	.	.	32ee
16A	16c	16e	32ff
.	.	.	32ee
=28	=28	=28	=28
16G#	16B	16e	16ee
16G#	16B	16e	16bb
16G#	16B	16e	16aa#
16G#	16B	16e	16bb
16G#	16B	16e	32gg#
.	.	.	32dd#
16G#	16B	16e	32ee
.	.	.	32a#
16G#	16B	16e	32b
.	.	.	32f##
16G#	16B	16e	32g#
.	.	.	32d#
16G#	16B	16e	32e
.	.	.	32g#
16G#	16B	16e	32b
.	.	.	32dd#
16G#	16B	16e	32ee
.	.	.	32gg#
16G#	16B	16e	32bb
.	.	.	32ddd
=29	=29	=29	=29
16A	16c	16e	16ccc
16A	16c	16e	16ccc
16A	16c	16e	16bb
16A	16c	16e	16aa
16A	16c	16f	32gg
.	.	.	32ff
16A	16c	16f	32ee
.	.	.	32ff
16A	16c	16f	32ee
.	.	.	32ff
16A	16c	16f	32ee
.	.	.	32ff
16A	16c	16f	64gg
.	.	.	64ff
.	.	.	64ee
.	.	.	64ff
16A	16c	16f	64gg
.	.	.	64ff
.	.	.	64ee
.	.	.	64ff
16A	16c	16f	64aa
.	.	.	64ff
.	.	.	64ee
.	.	.	64ff
16A	16c	16f	64gg
.	.	.	64ff
.	.	.	64ee
.	.	.	64ff
=30	=30	=30	=30
16B	16d	16f	64gg
.	.	.	64ff
.	.	.	64aa
.	.	.	64gg
16B	16d	16f	64ff
.	.	.	64ee
.	.	.	64dd
.	.	.	64cc#
16B	16d	16f	64dd
.	.	.	64ee
.	.	.	64ff
.	.	.	64gg
16B	16d	16f#	64ff
.	.	.	64ee
.	.	.	64dd
.	.	.	64cc
16B	16d	16g	64b
.	.	.	64cc
.	.	.	64dd
.	.	.	64ee
16B	16d	16g	64dd
.	.	.	64cc
.	.	.	64b
.	.	.	64a
16B	16d	16g	64g
.	.	.	64b
.	.	.	64a
.	.	.	64cc
16B	16d	16g	64b
.	.	.	64dd
.	.	.	64cc
.	.	.	64ee
16B	16d	16g	32dd
.	.	.	32ff
16B	16d	16g	32gg
.	.	.	32bb
16B	16d	16g	32ddd
.	.	.	32bb
16B	16d	16g	32gg
.	.	.	[32ff
=31	=31	=31	=31
16c	16e	16g	32ff]
.	.	.	16ee
16c	16e	16g	.
.	.	.	16dd#
16c	16e	16g	.
.	.	.	16ee
16c	16e	16g	.
.	.	.	32ff
16c	16e	16g	32ff#
.	.	.	16gg
16c	16e	16g	.
.	.	.	32gg#
16c	16e	16g	32aa
.	.	.	16bb
16c	16e	16g	.
.	.	.	32ccc
16E	16G	16c	32ddd
.	.	.	16eee
16E	16G	16c	.
.	.	.	16ddd
16E	16G	16c	.
.	.	.	16ccc
16E	16G	16c	.
.	.	.	[32bb
=32	=32	=32	=32
16F	16A	16c	32bb]
.	.	.	32aa
16F	16A	16c	32aa
.	.	.	32aa
16F	16A	16c	32gg#
.	.	.	32aa
16F	16A	16c	32aa
.	.	.	32aa
16F	16A	16d	64bb
.	.	.	64aa
.	.	.	64ccc
.	.	.	64bb
16F	16A	16d	64ddd
.	.	.	64ccc
.	.	.	64bb
.	.	.	64aa
16F	16A	16d	64gg
.	.	.	64ff#
.	.	.	64aa
.	.	.	64gg
16F	16A	16d	64bb
.	.	.	64aa
.	.	.	64gg
.	.	.	64ff
16F#	16A	16c	64ee
.	.	.	64dd
.	.	.	64ff
.	.	.	64ee
16F#	16A	16c	64gg
.	.	.	64ff
.	.	.	64ee
.	.	.	64dd
16F#	16A	16e	64cc
.	.	.	64b
.	.	.	64cc
.	.	.	64b
16F#	16A	16e	64cc
.	.	.	64b
.	.	.	64cc
.	.	.	64b
=33	=33	=33	=33
16G	16c	16e	32cc
.	.	.	32g
16G	16c	16e	32cc
.	.	.	32ee
16G	16c	16e	32gg
.	.	.	32ccc
16G	16c	16e	32eee
.	.	.	32ggg
16G	16B	16f	2ddd
16G	16B	16f	.
16G	16B	16f	.
16G	16B	16f	.
16GG	16f	16b	.
16GG	16f	16b	.
16GG	16f	16b	.
16GG	16f	16b	.
=34	=34	=34	=34
4C	16e	16cc	4ccc
.	16c	16e	.
.	16d	16f	.
.	16e	16g	.
4r	16f	16a	2r
.	16g	16b	.
.	16a	16cc	.
.	16b	16dd	.
16r	16cc	16ee	.
16E	16b	16dd	.
16E	16a	16cc	.
16E	16g#	16b	.
=35	=35	=35	=35
16C	16e	16cc	4ccc
16c	16cc	16ee	.
16B	16cc	16ee	.
16c	16cc	16ee	.
16G	16cc	16ee	2r
16E	16cc	16ee	.
16F	16cc	16ee	.
32E	16cc	16ee	.
32D	.	.	.
16C	16cc	16ee	.
16E	16cc	16ee	.
16G	16cc	16ee	.
16c	16cc	16ee	.
=36	=36	=36	=36
16G	16cc	16dd	2.r
16g	16cc	16dd	.
16f#	16cc	16dd	.
16g	16cc	16dd	.
16d	16b	16dd	.
16B	16b	16dd	.
16c	16b	16dd	.
32B	16b	16dd	.
32A	.	.	.
16G	16b	16dd	.
16B	16b	16dd	.
16d	16b	16dd	.
16G#	16b	16dd	.
=37	=37	=37	=37
16A	16b	16cc	2.r
16A	16b	16cc	.
16G#	16b	16cc	.
16A	16b	16cc	.
16E	16a	16cc	.
16C	16a	16cc	.
16D	16a	16cc	.
32C	16a	16cc	.
32BB	.	.	.
16AA	16a	16cc	.
16C	16a	16cc	.
16FF	16a	16cc	.
16DD#	16a	16cc	.
=38	=38	=38	=38
16EE	16g#	16b	16r
16E	16G#	16B	16bb
16E	16G#	16B	16aa#
16E	16G#	16B	16bb
16E	16G#	16B	16gg#
16E	16G#	16B	16ff
16E	16G#	16B	16dd
16E	16G#	16B	16b
16E	16G#	16B	16g#
16E	16G#	16B	16f
16E	16G#	16B	32e
.	.	.	32d
16E	16G#	16B	32c
.	.	.	32B
=39	=39	=39	=39
16E	16A	16c	16A
16E	16A	16c	16ccc
16E	16A	16c	16bb
16E	16A	16c	16ccc
16E	16A	16c	16aa
16E	16A	16c	16dd#
16E	16A	16c	16ee
16E	16A	16c	16b
16E	16A	16c	32cc
.	.	.	32g#
16E	16A	16c	32a
.	.	.	32e
16E	16A	16c	32d
.	.	.	32c
16E	16A	16c	32B
.	.	.	32A
=40	=40	=40	=40
16D#	16A 16F#	16c	16r
16D#	16A 16F#	16c	16ccc
16D#	16A 16F#	16c	16aa
16D#	16A 16F#	16c	16ff#
16D#	16A 16F#	16c	16dd#
16D#	16A 16F#	16c	16cc
16D#	16A 16F#	16c	16a
16D#	16A 16F#	16c	16f#
16D#	16A 16F#	16c	32d#
.	.	.	32f#
16D#	16A 16F#	16c	16a
16D#	16A 16F#	16c	16cc
16D#	16A 16F#	16c	16d#
=41	=41	=41	=41
4E	4A	4c	4d#
8EE	8G#	16B	16e
.	.	16e	16g#
4.r	4.r	16f#	16a
.	.	16g#	16b
.	.	16a	16cc
.	.	16a#	16cc#
.	.	16b	16dd
.	.	16b#	16dd#
=42	=42	=42	=42
4AA	4A	8..cc#	8..ee
.	.	32b	32dd
2r	2r	16a	16cc#
.	.	16a	32cc#
.	.	.	32ee
.	.	16e	16b
.	.	16e	16b
.	.	16c#	16a
.	.	16c#	16a
.	.	16e	16b
.	.	16e	16b
=43	=43	=43	=43
8..c#	8..e	8a	8cc#
.	.	16.a	16.cc#
32B	32d	32b	32dd
16A	16c#	8cc#	8ee
16A	32c#	.	.
.	32e	.	.
16E	16B	4.r	4.r
16E	16B	.	.
16C#	16A	.	.
16C#	16A	.	.
16E	16B	.	.
16E	16B	.	.
=44	=44	=44	=44
8.A	8.c#	[2.a	8..aa
32B	32d	.	.
32c#	32e	.	32gg#
8d	8f#	.	16ff#
.	.	.	16ff#
8e	8g	.	16r
.	.	.	16ee
8f#	8a	.	16r
.	.	.	16dd
8d#	8f#	.	16r
.	.	.	16cc#
=45	=45	=45	=45
8e	8e	8a]	16cc#
.	.	.	16dd
8r	8r	8r	16.dd#
.	.	.	32ee
8E	8E	8g#	64dd#
.	.	.	64ee
.	.	.	64dd#
.	.	.	64ee
.	.	.	64dd#
.	.	.	64ee
.	.	.	64dd#
.	.	.	64ee
8.r	8.r	4.r	64dd#
.	.	.	64ee
.	.	.	64dd#
.	.	.	64ee
.	.	.	64dd#
.	.	.	64ee
.	.	.	64dd#
.	.	.	64ee
.	.	.	8b
16E	16G#	.	.
16E	16G#	.	8r
16E	16G#	.	.
=46	=46	=46	=46
[4E	8..g#	8.b	8.dd
.	.	48cc#	48ee
.	.	48b	48dd
.	32a	.	.
.	.	48a	48cc#
16E]	16b	16g#	16b
16r	16r	16r	16b
16d	16e	16g#	16r
16r	16r	16r	16b
16c#	16e	16a	16r
16r	16r	16r	16cc#
16B	16e	16b	16r
16r	16r	16r	16dd
=47	=47	=47	=47
4A	2e	4cc#	8.ee
.	.	.	64ff#
.	.	.	64gg#
.	.	.	64aa
.	.	.	64bb
2F#	.	32b	16ccc#
.	.	32a	.
.	.	32g#	16ccc#
.	.	32a	.
.	.	32g#	16ccc#
.	.	32a	.
.	.	32g#	16ccc#
.	.	32a	.
.	4d#	16a	32bb#
.	.	.	32ccc#
.	.	16a	32ccc#
.	.	.	32ccc#
.	.	16a	16aa
.	.	16a	32gg#
.	.	.	32ff#
=48	=48	=48	=48
8G#	8e	8e	32bb
.	.	.	32bb
.	.	.	32bb
.	.	.	32b
8A	8A	16.cc#	32aa
.	.	.	32aa
.	.	.	32aa
.	.	32a	32ff#
8B	8B	8g#	32.ee
.	.	.	64gg#
.	.	.	16gg#
8r	8r	8r	32.bb
.	.	.	64gg#
.	.	.	16gg#
8BB	8d#	8f#	16bb
.	.	.	16aa
8r	8r	8r	16ff#
.	.	.	16dd#
=49	=49	=49	=49
[4E	8f#	4a	8dd#
.	16.d#	.	16ff#
.	.	.	16ee
.	32e	.	.
16E]	8e	8g#	8ee
16e	.	.	.
16d#	4.r	4.r	4.r
16e	.	.	.
16B	.	.	.
16G#	.	.	.
16A	.	.	.
32G#	.	.	.
32F#	.	.	.
=50	=50	=50	=50
[4E	8..G#	8..b	8..e 8..dd
.	32A	32a	32cc#
16E]	16B	16g#	16b
16E	16c#	16e	16a
16E	16B	16d	16g#
16E	16c#	16e	16a
16E	16B	16d	16g#
16E	16c#	16e	16a
16E	16B	16d	16b
16E	16A	16c#	16cc#
=51	=51	=51	=51
4E	4G#	4B	8dd
.	.	.	32dd
.	.	.	32ee
.	.	.	32ff#
.	.	.	32ee
2r	2r	2r	64dd
.	.	.	64ee
.	.	.	64ff#
.	.	.	64ee
.	.	.	64dd
.	.	.	64ee
.	.	.	64ff#
.	.	.	64ee
.	.	.	64dd
.	.	.	64ee
.	.	.	64ff#
.	.	.	64ee
.	.	.	64dd
.	.	.	64ee
.	.	.	64ff#
.	.	.	64ee
.	.	.	16dd
.	.	.	32g#
.	.	.	32b
.	.	.	32a
.	.	.	32cc
.	.	.	32b
.	.	.	32dd
=52	=52	=52	=52
4A	2.r	16r	8.cc
.	.	16e	.
.	.	16f	.
.	.	16f	32dd
.	.	.	32b#
2G#	.	16f	16b
.	.	16d#	16b
.	.	16e	16r
.	.	16e	16b
.	.	[4e	16dd
.	.	.	16b
.	.	.	16dd
.	.	.	16b
=53	=53	=53	=53
4A	2.r	16e]	8.cc
.	.	16e	.
.	.	16f	.
.	.	16f	32dd
.	.	.	32b#
8G#	.	16f	16b
.	.	16d#	16b
8G	.	16e	16r
.	.	16e	16ee
8F#	.	16e	16a
.	.	16c#	16a
8F	.	16d	16r
.	.	16d	16a
=54	=54	=54	=54
8E	[2.B	[2.d	16g#
.	.	.	16g#
8F	.	.	16r
.	.	.	32a
.	.	.	64g#
.	.	.	64a
8E	.	.	16g#
.	.	.	16g#
8F	.	.	16r
.	.	.	32a
.	.	.	64g#
.	.	.	64a
8E	.	.	16g#
.	.	.	16g#
8F	.	.	16r
.	.	.	32a
.	.	.	64g#
.	.	.	64a
=55	=55	=55	=55
4E	4B]	4d]	16.g#
.	.	.	32a
.	.	.	16.b
.	.	.	32cc
2r	2r	2r	16.dd
.	.	.	32ee
.	.	.	16ff
.	.	.	16ee
.	.	.	8.bb
.	.	.	16aa
=56	=56	=56	=56
4e	4b	4dd	16.gg#
.	.	.	32aa
.	.	.	16.bb
.	.	.	32ccc
2r	2r	2r	[6..ddd
.	.	.	48ddd]
.	.	.	16ccc
.	.	.	16bb
.	.	.	16aa
=57	=57	=57	=57
2.r	2.r	4r	8gg#
.	.	.	8r
.	.	4.dd	4.ff#
.	.	8r	8r
=58	=58	=58	=58
4AA	4A	8..cc#	8..ee
.	.	32b	32dd
2r	2r	16a	16cc#
.	.	16a	32cc#
.	.	.	32ee
.	.	16e	16b
.	.	16e	16b
.	.	16c#	16a
.	.	16c#	16a
.	.	16e	16b
.	.	16e	16b
=59	=59	=59	=59
8..c#	8..e	8..a	8..cc#
32B	32d	32b	32dd
16A	16c#	8cc#	8ee
16A	32c#	.	.
.	32e	.	.
16E	16B	4.r	4.r
16E	16B	.	.
16C#	16A	.	.
16C#	16A	.	.
16E	16B	.	.
16E	16B	.	.
=60	=60	=60	=60
8.A	8.c#	[2.a	32a
.	.	.	32b
.	.	.	32cc#
.	.	.	64dd
.	.	.	64ee
.	.	.	64ff#
.	.	.	64gg#
.	.	.	64aa
.	.	.	64bb
32B	32d	.	64ccc#
.	.	.	64bb
32c#	32e	.	64aa
.	.	.	64gg#
8d	8f#	.	16ff#
.	.	.	8ff#
8e	8g	.	.
.	.	.	16ee
8f#	8a	.	16dd#
.	.	.	16dd
8d#	8f#	.	16cc#
.	.	.	16b#
=61	=61	=61	=61
4e	4e	4a]	16cc#
.	.	.	16dd
.	.	.	[12..dd#
8E	8E	8g#	.
.	.	.	96dd#]
.	.	.	32ee
.	.	.	32dd#
.	.	.	32ee
4.r	4.r	4.r	32dd#
.	.	.	32ee
.	.	.	32ff#
.	.	.	32ee
.	.	.	8b
.	.	.	16b#
.	.	.	16cc#
=62	=62	=62	=62
4E	4g# 4B	4b 4e	16.dd
.	.	.	64cc#
.	.	.	64b
.	.	.	64a
.	.	.	64g#
.	.	.	64f#
.	.	.	64e
.	.	.	64d
.	.	.	64c#
.	.	.	64B
.	.	.	64A
8r	8r	8r	8G#
16d	16e	16g#	16b
16d	16e	16g#	16b
16c#	16e	16a	16cc#
16c#	16e	16a	16cc#
16B	16e	16b	16dd
16B	16e	16b	16dd
=63	=63	=63	=63
4A	4e	4cc#	8.ee
.	.	.	64ff#
.	.	.	64gg#
.	.	.	64aa
.	.	.	64bb
4C#	4e 4A	4a 4ee	8..ccc#
.	.	.	32bb
4r	4r	4r	16.aa
.	.	.	32gg#
.	.	.	32.ff#
.	.	.	64ee
.	.	.	32.dd
.	.	.	64cc#
=64	=64	=64	=64
8D	8D	8f#	16b
.	.	.	16b
8r	8r	8r	16dd
.	.	.	16ff#
8E	8E	8c#	8a
8r	8r	8r	32r
.	.	.	32a
.	.	.	16a
8E	8G#	8B	16ee
.	.	.	16dd
8r	8r	8r	32r
.	.	.	32g#
.	.	.	16g#
=65	=65	=65	=65
4F#	4g#	4d	4b
4r	8a	8c#	16a
.	.	.	16a
.	8.r	8.r	16a
.	.	.	16a
16r	.	.	16.a
16F#	16A	16a	.
.	.	.	64b
.	.	.	64cc#
16E	16A	16g#	64dd
.	.	.	64ee
.	.	.	64ff#
.	.	.	64gg#
16D	16A	16f#	64aa
.	.	.	64bb
.	.	.	64ccc#
.	.	.	64ddd
=66	=66	=66	=66
4C#	4A	4e	8..eee
.	.	.	32ddd
2r	2r	2r	32.ccc#
.	.	.	64ddd
.	.	.	32.bb
.	.	.	64ccc#
.	.	.	32.aa
.	.	.	64bb
.	.	.	32.gg#
.	.	.	64aa
.	.	.	48ff#
.	.	.	48gg#
.	.	.	48ff#
.	.	.	48ee
.	.	.	48ff#
.	.	.	48ee
.	.	.	48dd
.	.	.	48ee
.	.	.	48dd
.	.	.	48cc#
.	.	.	48dd
.	.	.	48cc#
=67	=67	=67	=67
8D	8D	8f#	16b
.	.	.	16b
8r	8r	8r	16dd
.	.	.	16ff#
8E	8E	8c#	8a
8r	8r	8r	32r
.	.	.	32a
.	.	.	16a
8E	8G#	8B	16ee
.	.	.	16dd
8r	8r	8r	32r
.	.	.	32g#
.	.	.	16g#
=68	=68	=68	=68
4.AA	8..e	4d	16.b
.	.	.	32cc
.	.	.	32cc#
.	.	.	32dd
.	.	.	32dd#
.	32G#	.	32ee
.	8A	8c#	8a
4.r	4.r	4.r	4.r
==	==	==	==
*-	*-	*-	*-
!!!RWG1: This file contains only pitch and duration data.
!!!RWG2: Transposing instruments are not transposed.
!!!RWG3: Spines may have incompatible meters.
!!!RWG4: Durations of rests and tied notes may be interpreted.
!!!RWG: Key is interpreted using the Humdrum key tool.
!!!GTL: 6 Quators ("Tost I + II")
!!!AFT: stage1
!!!END: 1997/04/15
!!!KEY: 1100199734
!!!EMD: Converted from MuseData to Humdrum Dec 16, 2000, by Andreas Kornstaedt using muse2kern.
!!!EMD: Manual editing by Craig Sapp, Nov 2001
